svg/color/rndr.svg

<svg width="64" height="65" viewBox="0 0 64 65" fill="none" xmlns="http://www.w3.org/2000/svg">
<rect y="0.303711" width="64" height="64" rx="32" fill="#CF1011"/>
<rect x="0.5" y="0.803711" width="63" height="63" rx="31.5" stroke="#070B14" stroke-opacity="0.15"/>
<path fill-rule="evenodd" clip-rule="evenodd" d="M32 24.7261C36.1728 24.7261 39.5776 28.1053 39.5776 32.3037C39.5776 36.4765 36.1984 39.8813 32 39.8813C27.8272 39.8813 24.4224 36.5021 24.4224 32.3037C24.4224 28.1309 27.8016 24.7261 32 24.7261Z" fill="white"/>
<path fill-rule="evenodd" clip-rule="evenodd" d="M32.1793 12.4893C34.5601 12.5149 36.9153 12.9757 39.1169 13.8205C41.3185 14.6653 43.3665 15.8941 45.1585 17.4813L45.2097 17.5325C49.2801 21.1677 51.5073 26.0829 51.7889 31.1261C52.0961 36.1949 50.4577 41.3661 46.8481 45.4621L46.7969 45.5133C43.1617 49.5837 38.2465 51.8109 33.2033 52.0925C28.1345 52.3997 22.9633 50.7613 18.8673 47.1517C14.7713 43.5165 12.5185 38.5757 12.2369 33.5069C11.9297 28.4381 13.5681 23.2669 17.1777 19.1709L18.8929 20.6813C15.6929 24.2909 14.2593 28.8733 14.5153 33.3533C14.7969 37.8333 16.7681 42.2109 20.3777 45.4109C23.9873 48.6109 28.5697 50.0445 33.0497 49.7885C37.5297 49.5069 41.9073 47.5357 45.1073 43.9261L45.1585 43.8749C48.3329 40.2653 49.7665 35.7085 49.4849 31.2541C49.2033 26.7741 47.2321 22.3965 43.6225 19.1965L43.5713 19.1453C42.0097 17.7629 40.2177 16.6877 38.2977 15.9453C36.3521 15.2029 34.2785 14.7933 32.1793 14.7677L32.2049 12.4637L32.1793 12.4893Z" fill="white"/>
<path d="M20.7362 12.6174C22.1186 12.6174 23.3474 13.1806 24.2434 14.0766C25.1394 14.9726 25.7026 16.227 25.7026 17.5838C25.7026 18.9662 25.1394 20.195 24.2434 21.091C23.3474 21.987 22.093 22.5502 20.7362 22.5502C19.3538 22.5502 18.125 21.987 17.229 21.091C16.333 20.195 15.7698 18.9406 15.7698 17.5838C15.7698 16.2014 16.333 14.9726 17.229 14.0766C18.125 13.1806 19.3794 12.6174 20.7362 12.6174ZM22.6306 15.715C22.1442 15.2286 21.4786 14.9214 20.7362 14.9214C19.9938 14.9214 19.3282 15.2286 18.8418 15.715C18.3554 16.2014 18.0482 16.867 18.0482 17.6094C18.0482 18.3518 18.3554 19.0174 18.8418 19.5038C19.3282 19.9902 19.9938 20.2974 20.7362 20.2974C21.4786 20.2974 22.1442 19.9902 22.6306 19.5038C23.117 19.0174 23.4242 18.3518 23.4242 17.6094C23.4242 16.867 23.117 16.2014 22.6306 15.715Z" fill="white"/>
</svg>

<svg xmlns="http://www.w3.org/2000/svg" width="64" height="65" fill="none" viewBox="0 0 64 65"><rect width="64" height="64" y=".304" fill="#CF1011" rx="32"/><rect width="63" height="63" x=".5" y=".804" stroke="#070B14" stroke-opacity=".15" rx="31.5"/><path fill="#fff" fill-rule="evenodd" d="M32 24.726a7.577 7.577 0 0 1 7.578 7.578A7.577 7.577 0 0 1 32 39.88a7.577 7.577 0 0 1-7.578-7.577A7.577 7.577 0 0 1 32 24.726" clip-rule="evenodd"/><path fill="#fff" fill-rule="evenodd" d="M32.18 12.49a20 20 0 0 1 6.937 1.33 19.8 19.8 0 0 1 6.041 3.661l.052.051c4.07 3.636 6.297 8.55 6.579 13.594a19.8 19.8 0 0 1-4.94 14.336l-.052.051c-3.635 4.07-8.55 6.298-13.594 6.58a19.8 19.8 0 0 1-14.336-4.941c-4.096-3.636-6.349-8.576-6.63-13.645a19.8 19.8 0 0 1 4.94-14.336l1.716 1.51c-3.2 3.61-4.634 8.192-4.378 12.672.282 4.48 2.253 8.858 5.863 12.058s8.192 4.633 12.672 4.377c4.48-.281 8.857-2.252 12.057-5.862l.051-.051a17.4 17.4 0 0 0 4.327-12.62c-.282-4.48-2.253-8.858-5.862-12.058l-.052-.052a17.4 17.4 0 0 0-5.273-3.2 17.8 17.8 0 0 0-6.119-1.177l.026-2.304z" clip-rule="evenodd"/><path fill="#fff" d="M20.736 12.617a4.93 4.93 0 0 1 3.507 1.46 4.98 4.98 0 0 1 1.46 3.507 4.93 4.93 0 0 1-1.46 3.507 4.98 4.98 0 0 1-3.507 1.46 4.93 4.93 0 0 1-3.507-1.46 4.98 4.98 0 0 1-1.46-3.507 4.93 4.93 0 0 1 1.46-3.507 4.98 4.98 0 0 1 3.507-1.46m1.895 3.098a2.67 2.67 0 0 0-1.895-.794 2.67 2.67 0 0 0-1.894.794 2.67 2.67 0 0 0-.794 1.894c0 .743.307 1.408.794 1.895a2.67 2.67 0 0 0 1.894.793 2.67 2.67 0 0 0 1.895-.793 2.67 2.67 0 0 0 .793-1.895 2.67 2.67 0 0 0-.793-1.894"/></svg>
